src/assets/images/search.svg

<svg width="17" height="17" viewBox="0 0 17 17" fill="none" xmlns="http://www.w3.org/2000/svg">
<path d="M12.8726 11.4423C12.685 11.2543 12.4303 11.1487 12.1647 11.1487H11.8267L11.5599 10.8914C12.4938 9.80506 13.056 8.39473 13.056 6.86052C13.056 3.43952 10.283 0.666504 6.86198 0.666504C3.44098 0.666504 0.667969 3.43952 0.667969 6.86052C0.667969 10.2815 3.44098 13.0545 6.86198 13.0545C8.39619 13.0545 9.80652 12.4923 10.8929 11.5584L11.1501 11.8253V12.1633C11.1501 12.4288 11.2558 12.6835 11.4438 12.8711L15.2077 16.6275C15.5983 17.0173 16.2345 17.0135 16.6247 16.6232C17.015 16.233 17.0188 15.5968 16.6289 15.2062L12.8726 11.4423ZM6.86198 11.1487C4.4892 11.1487 2.57382 9.2333 2.57382 6.86052C2.57382 4.48774 4.4892 2.57236 6.86198 2.57236C9.23477 2.57236 11.1501 4.48774 11.1501 6.86052C11.1501 9.2333 9.23477 11.1487 6.86198 11.1487Z" fill="#646778"/>
</svg>

<svg width="17" height="17" fill="none" xmlns="http://www.w3.org/2000/svg"><path d="M12.873 11.442a1 1 0 0 0-.708-.293h-.338l-.267-.258a6.166 6.166 0 0 0 1.496-4.03 6.194 6.194 0 1 0-6.194 6.194 6.167 6.167 0 0 0 4.03-1.497l.258.267v.338a1 1 0 0 0 .294.708l3.764 3.757a1.004 1.004 0 0 0 1.42-1.422l-3.755-3.764Zm-6.011-.293A4.282 4.282 0 0 1 2.574 6.86a4.282 4.282 0 0 1 4.288-4.289 4.282 4.282 0 0 1 4.288 4.289 4.282 4.282 0 0 1-4.288 4.288Z" fill="#646778"/></svg>
